X:33
T:Kevin Griffin's Jig
M:6/8
L:1/8
K:D
F/|DFA d2 d|edB gfg|afd Adf|edc dAF|\
DFA def|edB gfg|afd Adf|edc d3 :|
{e}fdf afa|bgb a2 g|fdf afa|bgb a2 f/ f/|\
gbg faf|edB gfg|afd Fdf|edc d3 :|
